src/Netnr.P/Netnr.ScriptService/wwwroot/icon/zoning.svg

<?xml version="1.0" standalone="no"?><!DOCTYPE svg PUBLIC "-//W3C//DTD SVG 1.1//EN" "http://www.w3.org/Graphics/SVG/1.1/DTD/svg11.dtd"><svg t="1566272622973" class="icon" viewBox="0 0 1075 1024" version="1.1" xmlns="http://www.w3.org/2000/svg" p-id="41549" xmlns:xlink="http://www.w3.org/1999/xlink" width="209.9609375" height="200"><defs><style type="text/css"></style></defs><path d="M521.726254 337.675597H459.877253C427.456405 399.025816 395.53434 448.904043 388.551388 459.378471l-14.464686 22.943984-14.963468-22.943984C352.140283 448.904043 320.218217 399.025816 287.79737 337.675597H210.486118l-19.951291 168.089625 414.986849-9.975646zM737.698977 498.78227a867.88115 867.88115 0 0 1 191.033609 87.286897V365.607404S663.380419 480.826108 737.698977 498.78227zM804.535801 382.067219c0-7.481734-214.975158-41.897711-214.975158-41.897711l82.797857 134.671213a1282.369216 1282.369216 0 0 0 132.177301-92.773502zM356.130541 535.193376H172.079883l-45.887969 158.113979H279.318071l76.81247-158.113979zM448.904043 563.623965a268.843643 268.843643 0 0 0-117.213834 107.238188 315.729177 315.729177 0 0 1 232.432538 220.960545h230.437409a862.893327 862.893327 0 0 1 166.593278-202.505601s-149.634681-153.126157-319.719435-153.126157A498.78227 498.78227 0 0 0 448.904043 563.623965z" fill="#3FA9F5" p-id="41550"></path><path d="M131.179737 736.20263l-3.491476 82.299075 276.82416 3.491476 118.71018 49.379444-118.71018-135.169995H131.179737z" fill="#3FA9F5" p-id="41551"></path><path d="M1009.036532 309.74379a42.895275 42.895275 0 0 0-42.396493-37.907453H470.850463a337.675597 337.675597 0 0 0 40.401364-119.707745 137.165124 137.165124 0 0 0-274.330249 0 337.675597 337.675597 0 0 0 40.401364 119.707745H156.11885a42.895275 42.895275 0 0 0-42.396492 34.914759L10.474428 873.367755a42.895275 42.895275 0 0 0 42.396493 49.878226h384.56113a1904.350706 1904.350706 0 0 0 370.595226 85.291769 42.396493 42.396493 0 0 0 24.440331-7.980517 1488.865075 1488.865075 0 0 0 220.461764-199.512908 42.895275 42.895275 0 0 0 10.474427-33.917194zM265.85095 152.128592a108.235753 108.235753 0 1 1 216.970287 0c0 46.885533-69.829518 171.082319-108.235752 234.427667C335.680468 323.210911 265.85095 199.512908 265.85095 152.128592z m584.57282 781.591817l-262.359474-6.484169c-68.831953-18.454944-126.690697-36.909888-138.661471-40.900146a40.401364 40.401364 0 0 0-12.968339 0H52.870921L49.878227 880.849489 153.126157 314.23283a3.491476 3.491476 0 0 1 3.491476-2.493911H299.269362c28.929372 53.369703 57.858743 99.756454 64.342913 110.230881l11.970774 18.953727 11.970775-18.953727c5.985387-9.975645 35.413541-56.362396 64.342912-110.230881h514.743303a3.491476 3.491476 0 0 1 3.491476 2.992693l49.878227 408.003897a538.186069 538.186069 0 0 0-169.585972 210.9849z" fill="#3FA9F5" p-id="41552"></path></svg>

<svg viewBox="0 0 1075 1024" xmlns="http://www.w3.org/2000/svg" width="209.961" height="200"><path d="M521.726 337.676h-61.849c-32.42 61.35-64.343 111.228-71.326 121.702l-14.464 22.944-14.964-22.944c-6.983-10.474-38.905-60.352-71.326-121.702h-77.31l-19.952 168.09 414.987-9.976zM737.7 498.782a867.881 867.881 0 0 1 191.034 87.287V365.607S663.38 480.827 737.699 498.782zm66.837-116.715c0-7.482-214.975-41.897-214.975-41.897l82.797 134.67a1282.37 1282.37 0 0 0 132.178-92.773zM356.13 535.193H172.08l-45.888 158.114h153.126l76.813-158.114zm92.773 28.431A268.844 268.844 0 0 0 331.69 670.862a315.73 315.73 0 0 1 232.433 220.96H794.56a862.893 862.893 0 0 1 166.593-202.505S811.52 536.191 641.434 536.191a498.782 498.782 0 0 0-192.53 27.433z" fill="#3FA9F5"/><path d="m131.18 736.203-3.492 82.299 276.824 3.491 118.71 49.38-118.71-135.17H131.18z" fill="#3FA9F5"/><path d="M1009.037 309.744a42.895 42.895 0 0 0-42.397-37.908H470.85a337.676 337.676 0 0 0 40.402-119.707 137.165 137.165 0 0 0-274.33 0 337.676 337.676 0 0 0 40.4 119.707H156.12a42.895 42.895 0 0 0-42.397 34.915L10.474 873.368a42.895 42.895 0 0 0 42.397 49.878h384.561a1904.35 1904.35 0 0 0 370.595 85.292 42.396 42.396 0 0 0 24.44-7.98 1488.865 1488.865 0 0 0 220.462-199.514 42.895 42.895 0 0 0 10.475-33.917zM265.85 152.129a108.236 108.236 0 1 1 216.97 0c0 46.885-69.83 171.082-108.236 234.427-38.905-63.345-108.734-187.043-108.734-234.427zM850.424 933.72l-262.36-6.484c-68.832-18.455-126.69-36.91-138.661-40.9a40.401 40.401 0 0 0-12.969 0H52.871l-2.993-5.487 103.248-566.616a3.491 3.491 0 0 1 3.492-2.494h142.651c28.93 53.37 57.86 99.756 64.343 110.23l11.971 18.955 11.97-18.954c5.986-9.976 35.414-56.363 64.344-110.231H966.64a3.491 3.491 0 0 1 3.492 2.993l49.878 408.004A538.186 538.186 0 0 0 850.424 933.72z" fill="#3FA9F5"/></svg>
